static/img/Logos/AniList.svg

<svg xmlns="http://www.w3.org/2000/svg" preserveAspectRatio="xMidYMid" viewBox="0 0 172 172">
  <path d="M111.32 111.16V41.032c0-4.019-2.217-6.237-6.236-6.237H91.363c-4.019 0-6.237 2.218-6.237 6.237v33.304c0 .938 9.037 5.293 9.273 6.214 6.885 26.902 1.496 48.433-5.031 49.438 10.672.528 11.846 5.659 3.897 2.153 1.216-14.354 5.961-14.326 19.602-.528.117.119 2.797 5.741 2.964 5.741h32.217c4.019 0 6.236-2.217 6.236-6.236v-13.721c0-4.019-2.217-6.237-6.236-6.237H111.32z" style="fill-rule:evenodd;fill:#02a9ff"/>
  <path d="m54.365 34.792-36.034 102.56h27.996l6.098-17.74h30.49l5.96 17.74h27.857L80.836 34.792H54.365zm4.435 62.09 8.731-28.412 9.563 28.412H58.8z" style="fill:#fefefe;fill-rule:evenodd"/>
</svg>

<svg xmlns="http://www.w3.org/2000/svg" xmlns:xlink="http://www.w3.org/1999/xlink" preserveAspectRatio="xMidYMid" width="172" height="172" viewBox="0 0 172 172">
  <defs>
    <style>
      .cls-1 {
        fill: #02a9ff;
      }

      .cls-1, .cls-2 {
        fill-rule: evenodd;
      }

      .cls-2 {
        fill: #fefefe;
      }
    </style>
  </defs>
  <g>
    <path d="M111.322,111.157 L111.322,41.029 C111.322,37.010 109.105,34.792 105.086,34.792 L91.365,34.792 C87.346,34.792 85.128,37.010 85.128,41.029 C85.128,41.029 85.128,56.337 85.128,74.333 C85.128,75.271 94.165,79.626 94.401,80.547 C101.286,107.449 95.897,128.980 89.370,129.985 C100.042,130.513 101.216,135.644 93.267,132.138 C94.483,117.784 99.228,117.812 112.869,131.610 C112.986,131.729 115.666,137.351 115.833,137.351 C131.170,137.351 148.050,137.351 148.050,137.351 C152.069,137.351 154.286,135.134 154.286,131.115 L154.286,117.394 C154.286,113.375 152.069,111.157 148.050,111.157 L111.322,111.157 Z" class="cls-1"/>
    <path d="M54.365,34.792 L18.331,137.351 L46.327,137.351 L52.425,119.611 L82.915,119.611 L88.875,137.351 L116.732,137.351 L80.836,34.792 L54.365,34.792 ZM58.800,96.882 L67.531,68.470 L77.094,96.882 L58.800,96.882 Z" class="cls-2"/>
  </g>
</svg>
